X:113
M:6/8
L:1/8
K:Gmin
dB | GGG GdB | AAA Aec | BcA GA^F | GGG GdB | GGG GdB | AAA Aec |
ecA Ace | dBG GBd | dDD DdB | GGG GdB | AAA Aec | BcA GA^F | GGG G :|

